src/lib/packages/icons/src/assets/line/message-shield.svg

<svg width="24" height="24" viewBox="0 0 24 24" fill="none" xmlns="http://www.w3.org/2000/svg">
<path d="M3 21.75C2.903 21.75 2.80589 21.731 2.71289 21.693C2.43289 21.577 2.25 21.303 2.25 21V6C2.25 3.582 3.582 2.25 6 2.25H18C20.418 2.25 21.75 3.582 21.75 6V15C21.75 17.418 20.418 18.75 18 18.75H6.31104L3.53101 21.53C3.38701 21.674 3.195 21.75 3 21.75ZM6 3.75C4.423 3.75 3.75 4.423 3.75 6V19.189L5.46997 17.469C5.61097 17.328 5.801 17.249 6 17.249H18C19.577 17.249 20.25 16.576 20.25 14.999V5.99902C20.25 4.42202 19.577 3.74902 18 3.74902H6V3.75ZM12 15.25C11.919 15.25 11.838 15.237 11.76 15.21C9.82201 14.554 7.75 12.8551 7.75 10.0551V7.83301C7.75 7.49901 7.97197 7.20506 8.29297 7.11206C10.076 6.60006 10.9069 6.21298 11.6689 5.82898C11.8839 5.72198 12.1361 5.72305 12.3491 5.83105C13.1031 6.21705 13.9251 6.6 15.6851 7.047C16.0181 7.131 16.25 7.43105 16.25 7.77405V10.054C16.25 12.854 14.179 14.553 12.24 15.209C12.162 15.237 12.081 15.25 12 15.25ZM9.25 8.39404V10.056C9.25 12.352 11.208 13.379 12 13.7C12.792 13.379 14.75 12.352 14.75 10.056V8.35303C13.554 8.02203 12.7599 7.70601 12.0049 7.33801C11.2379 7.70801 10.459 8.02604 9.25 8.39404Z" fill="currentColor"/>
</svg>

<svg xmlns="http://www.w3.org/2000/svg" width="24" height="24" fill="none"><path fill="currentColor" d="M3 21.75a.75.75 0 0 1-.75-.75V6c0-2.418 1.332-3.75 3.75-3.75h12c2.418 0 3.75 1.332 3.75 3.75v9c0 2.418-1.332 3.75-3.75 3.75H6.311l-2.78 2.78a.75.75 0 0 1-.531.22Zm3-18c-1.577 0-2.25.673-2.25 2.25v13.189l1.72-1.72a.749.749 0 0 1 .53-.22h12c1.577 0 2.25-.673 2.25-2.25v-9c0-1.577-.673-2.25-2.25-2.25H6v.001Zm6 11.5a.733.733 0 0 1-.24-.04c-1.938-.656-4.01-2.355-4.01-5.155V7.833a.75.75 0 0 1 .543-.72c1.783-.513 2.614-.9 3.376-1.284a.758.758 0 0 1 .68.002c.754.386 1.576.769 3.336 1.216a.749.749 0 0 1 .565.727v2.28c0 2.8-2.071 4.499-4.01 5.155a.708.708 0 0 1-.24.041ZM9.25 8.394v1.662c0 2.296 1.958 3.323 2.75 3.644.792-.321 2.75-1.348 2.75-3.644V8.353c-1.196-.331-1.99-.647-2.745-1.015-.767.37-1.546.688-2.755 1.056Z"/></svg>
